ion/bag-handle-sharp.svg

<svg viewBox="0 0 512 512" xmlns="http://www.w3.org/2000/svg"><path d="M460 160h-88v-12 0c-.05-62.93-50.21-114.37-113.11-116 -1 0-1.92 0-2.89 0 -.97 0-1.93 0-2.89 0h0C190.2 33.63 140.04 85.07 140 148v12H52v0c-2.21 0-4 1.79-4 4v300 0c0 8.83 7.16 16 16 16h384v0c8.83 0 16-7.17 16-16V164v0c0-2.21-1.8-4-4-4Zm-280-11c0-41.84 33.41-76.56 75.25-77v0c42.01-.38 76.37 33.39 76.74 75.4 0 .19 0 .39 0 .59v12h-152Zm188 91v0c0 61.85-50.15 112-112 112 -61.86 0-112-50.15-112-112v-32h32v32 0c0 44.18 35.81 80 80 80 44.18 0 80-35.82 80-80v-32h32Z"/></svg>

<svg xmlns="http://www.w3.org/2000/svg" viewBox="0 0 512 512"><path d="M460,160H372V148A116.13,116.13,0,0,0,258.89,32c-1,0-1.92,0-2.89,0s-1.93,0-2.89,0A116.13,116.13,0,0,0,140,148v12H52a4,4,0,0,0-4,4V464a16,16,0,0,0,16,16H448a16,16,0,0,0,16-16V164A4,4,0,0,0,460,160ZM180,149c0-41.84,33.41-76.56,75.25-77A76.08,76.08,0,0,1,332,148v12H180Zm188,91a112,112,0,0,1-224,0V208h32v32a80,80,0,0,0,160,0V208h32Z"/></svg>
